!!!OTL: 281. Traum und Gesang.
!!!COM: F. A. Kempt
!!!ODT: 1842 (vor)
!!!ARE: Europa, Mitteleuropa, Deutschland
!!!SCT: B0281
!!!TXL: @@DE
!!!YEM: Copyright 1995, estate of Helmut Schaffrath.
**kern	**text
*ICvox	*
*Ivox	*
*M4/4	*
*met(c)	*
*clefG2	*
*k[f#c#g#]	*
*A:	*
!LO:TX:a:t=Mäßig.	!
{8.cc#	Ach!
16b	um-
=1	=1
4.a	-ſonſt
8a	auf
8a	al-
8a	-ler
8g#	Län-
8a	-der
=2	=2
4a#	Kar-
4b	-ten
4r}	.
{8a#	ſpähſt
8b	du
=3	=3
4.cc#	nach
8cc#	dem
8b	ſe-
8an	-lig-
8g#	-ſten
8a	Ge-
=4	=4
2b	-biet,
4r}	.
{8e	wo
8e	der
=5	=5
(4dd	Frei-
8cc#)	.
8b	-heit
8ee	e-
8ee	-wig
8cc#	grü-
8b	-ner
=6	=6
8.aL	Gar-
16bJ	.
4cc#	-ten,
4r}	.
{8cc#	wo
8cc#	der
=7	=7
8a#	Menſchheit
8b	.
8ee	ſchö-
8dd	-ne
4a	Ju-
4b	-gend
=8	=8
2cc#	blüht,
4r}	.
{8cc#	wo
8cc#	der
=9	=9
8.ee	Menſchheit
16dd	.
8cc#	ſchö-
8b	-ne
(<4asS	Ju-
8.cc#)	.
16b	-gend
=10	=10
2a	blüht!
4r}	.
==	==
!!!AGN: Stimmungs - Lied, Sehnsucht, Jugend
!!!GTL: Trauerlieder (Elegien) und Stimmungslieder
!!!ONB: ESAC (Essen Associative Code) Database: BOEHME
!!!AMT: simple quadruple
!!!AIN: vox
!!!EED: Helmut Schaffrath
!!!EEV: 1.0
!!!RDF**kern: < = below
!!@@COMMENT:"Text und Melodie in Fink's Hausſchatʒ 1843; dann im Liederbuch von J. Schanʒ und Parucker
!!1848, auch handſchriftlich. Uberall iſt als Dichter Fr. Schiller angegeben, aber in deſſen Werken
!!findet ſich das Lied nicht."
!!@@END:
!!!Text: Fr. Schiller (?)
!!!URL-scan: https://archive.org/details/BoehmeVtLieder1895/page/n237/mode/2up
!!!ENC: Anna Maria Matuszewska
!!!EEV: 2024/03/07
*-	*-
